packages/icons/24x24/info-outlined.svg

<?xml version="1.0" encoding="UTF-8"?>
<svg width="24px" height="24px" viewBox="0 0 24 24" version="1.1" xmlns="http://www.w3.org/2000/svg" xmlns:xlink="http://www.w3.org/1999/xlink">
    <title>Icons / 24x24 / Messaging / Info Outlined</title>
    <g id="Icons-/-24x24-/-Messaging-/-Info-Outlined" stroke="none" stroke-width="1" fill="none" fill-rule="evenodd">
        <rect id="base" fill-opacity="0" fill="#FFFFFF" x="0" y="0" width="24" height="24"></rect>
        <path d="M12,0 C18.627417,0 24,5.372583 24,12 C24,18.627417 18.627417,24 12,24 C5.372583,24 0,18.627417 0,12 C0,5.372583 5.372583,0 12,0 Z M12,2 C6.4771525,2 2,6.4771525 2,12 C2,17.5228475 6.4771525,22 12,22 C17.5228475,22 22,17.5228475 22,12 C22,6.4771525 17.5228475,2 12,2 Z M11.9998,9.00850483 C12.5126358,9.00850483 12.9353072,9.39454502 12.9930723,9.8918837 L12.9998,10.0085048 L12.9998,16.0205027 C12.9998,16.522879 13.3779667,16.9369297 13.8651618,16.9935166 L13.9895961,17.0000541 C14.541851,16.9943082 14.9942,17.4373412 14.9999459,17.9895961 C15.0052814,18.5024042 14.6236595,18.929069 14.1269487,18.9920052 L13.9794044,19.0001071 C12.3925854,19.0001071 11.0954842,17.759678 11.0048581,16.1955771 L10.9998,16.0205027 L10.999,11.008 L10.0032134,11.0085048 C9.49037758,11.0085048 9.06770626,10.6224646 9.00994115,10.125126 L9.00321342,10.0085048 C9.00321342,9.49566899 9.38925361,9.07299767 9.8865923,9.01523256 L10.0032134,9.00850483 L11.9998,9.00850483 Z M12,5 C12.552,5 13,5.448 13,6 C13,6.552 12.552,7 12,7 C11.448,7 11,6.552 11,6 C11,5.448 11.448,5 12,5 Z" id="Mask" fill="#1E0A46" fill-rule="nonzero"></path>
    </g>
</svg>

<svg width="24" height="24" class="customer-ui__icon" xmlns="http://www.w3.org/2000/svg">
  <title>Information Outlined</title>
  <g stroke="none" stroke-width="1" fill="inherit" fill-rule="evenodd">
    <path fill="none" d="M0 0h24v24H0z"/>
    <path d="M12 0c6.627 0 12 5.373 12 12s-5.373 12-12 12S0 18.627 0 12 5.373 0 12 0zm0 2C6.477 2 2 6.477 2 12s4.477 10 10 10 10-4.477 10-10S17.523 2 12 2zm0 7.009a1 1 0 01.993.883l.007.117v6.012a.98.98 0 00.865.973l.125.006a1 1 0 01.137 1.992l-.148.008a2.98 2.98 0 01-2.974-2.804L11 16.02l-.001-5.013h-.996a1 1 0 01-.993-.883l-.007-.116a1 1 0 01.884-.994l.116-.006H12zM12 5a1 1 0 110 2 1 1 0 010-2z" fill="#1E0A46" fill-rule="nonzero"/>
  </g>
</svg>
